X:27
T:Three Captains,The. TJD.27
M:6/8
L:1/8
Q:1/4=120
S:T.J.Dixon MS1, Lincolnshire, 1798
R:jig
A:Lincolnshire, Holton le Moor
Z:vmp.R.Greig2010
K:G
“^unedited version”G3BGB|c2AF2D|G3BGB|d2BG2B|c3ecA|B3dBG|!
A2Bc2B|ABG FED::AcB AGF|G2G2::g3d c|B3A2G2|!
g3gfg|g2f2d2d2|gbge|f3gfd|egf ed^c|d3-d3|!
=c3ecA|B3Bef|gfe dcB|ecA FED:|!
zzzz|!
“^edited version by CGP”G3BGB|c2AF2D|G3BGB|d2BG2B|!
c3ecA|B3dBG|A2Bc2B|ABG FED|!
G3BGB|c2AF2D|G3BGB|d2BG2B|!
c3ecA|B3dBG|AcB AGF|G3G3||!
g3d2 c|B3A2G|g3gfg|a2fd2d|!
g2bg2e|f3gfd|egf ed^c|d3-d3|!
=c3ecA|B3Bef|gfe dcB|ecA FED|!
G3BGB|c2AF2D|G3BGB|d2BG2B|!
c3ecA|B3dBG|AcB AGF|G3G3|]

